dist/assets/symbols/hands.svg

<svg viewBox="0 0 40 40" fill="none" xmlns="http://www.w3.org/2000/svg">
<path d="M27.6437 27.0787C28.2226 26.9466 28.7965 26.7587 29.3552 26.4997C32.5114 25.0575 34.5249 21.8784 34.4998 18.3846L34.4746 14.5453C34.4645 13.1996 33.3772 12.1179 32.0433 12.123C31.0617 12.128 30.221 12.7273 29.8485 13.5754L27.5984 8.57321C27.0497 7.34425 25.6201 6.80087 24.402 7.35441C24.115 7.48644 23.8684 7.66418 23.662 7.88255C22.9824 7.05478 21.8196 6.75516 20.8028 7.21729C19.7859 7.67942 19.2423 8.76618 19.4134 9.82248C19.1165 9.83771 18.8195 9.90881 18.5325 10.0358C17.561 10.4827 17.0224 11.4932 17.1281 12.5089L19.1618 13.3976L18.7993 12.5902C18.6181 12.1839 18.7943 11.7015 19.202 11.5136C19.6098 11.3257 20.0829 11.5085 20.2692 11.9198L21.3615 14.3625L21.875 14.586L21.8951 14.5961C22.5394 14.8856 23.1435 15.236 23.7023 15.6372L21.729 11.2546L21.0645 9.77169C20.8833 9.36543 21.0595 8.88298 21.4672 8.69509C21.875 8.50719 22.3482 8.69001 22.5344 9.10135L23.1989 10.5791L25.1923 15.0227C25.3735 15.429 25.8517 15.6118 26.2594 15.429C26.6672 15.2461 26.8433 14.7637 26.6621 14.3524L24.6637 9.91389C24.4825 9.50762 24.6587 9.02518 25.0664 8.83728C25.4742 8.64938 25.9473 8.8322 26.1336 9.24355L29.7328 17.2572C29.8888 17.6076 30.2663 17.7955 30.6388 17.7142C31.0113 17.633 31.2731 17.2978 31.2731 16.9169L31.258 14.5707C31.253 14.1238 31.6154 13.7582 32.0584 13.7531C32.5013 13.748 32.8688 14.1137 32.8688 14.5606L32.894 18.4049C32.9141 21.2538 31.2681 23.8539 28.6908 25.027C28.4592 25.1337 28.2276 25.2251 27.9911 25.3012C27.9256 25.9106 27.8098 26.5099 27.6437 27.0837V27.0787ZM17.1029 16.0079L20.5813 17.5669C23.1636 18.7248 24.8298 21.3097 24.8298 24.1586C24.8298 28.1451 21.6283 31.3749 17.6768 31.3749H11.1379C10.6949 31.3749 10.3325 31.0093 10.3325 30.5624C10.3325 30.1155 10.6899 29.7499 11.1379 29.7499H14.3595C14.8025 29.7499 15.1649 29.3842 15.1649 28.9373C15.1649 28.4904 14.8025 28.1248 14.3595 28.1248H11.1328H10.3325H9.52705C9.08407 28.1248 8.72164 27.7592 8.72164 27.3123C8.72164 26.8654 9.08407 26.4997 9.52705 26.4997H14.3595C14.8025 26.4997 15.1649 26.1341 15.1649 25.6872C15.1649 25.2403 14.8025 24.8747 14.3595 24.8747H8.72164H7.91623C7.47325 24.8747 7.11082 24.509 7.11082 24.0621C7.11082 23.6152 7.47325 23.2496 7.91623 23.2496H9.52705H14.3595C14.8025 23.2496 15.1649 22.884 15.1649 22.4371C15.1649 21.9902 14.8025 21.6245 14.3595 21.6245H9.52705C9.08407 21.6245 8.72164 21.2589 8.72164 20.812C8.72164 20.3651 9.08407 19.9995 9.52705 19.9995H18.2456C18.6282 19.9995 18.9554 19.7303 19.0359 19.3545C19.1165 18.9787 18.9252 18.5978 18.5728 18.4455L16.4485 17.4908C16.0408 17.3079 15.8596 16.8306 16.0408 16.4192C16.222 16.0079 16.6952 15.8251 17.1029 16.0079ZM8.89279 29.6635C8.78204 29.9428 8.72164 30.2475 8.72164 30.5624C8.72164 31.9082 9.80391 33 11.1379 33H17.6768C22.5193 33 26.4406 29.044 26.4406 24.1586C26.4406 20.6647 24.402 17.5009 21.2357 16.079L17.7573 14.5199C16.5391 13.9715 15.1095 14.525 14.5659 15.7591C14.1682 16.663 14.3595 17.6787 14.9736 18.3744H9.52705C8.19309 18.3744 7.11082 19.4662 7.11082 20.812C7.11082 21.1269 7.17122 21.4316 7.28197 21.7109C6.25507 21.9902 5.5 22.9398 5.5 24.0621C5.5 25.1844 6.25507 26.1341 7.28197 26.4134C7.17122 26.6927 7.11082 26.9974 7.11082 27.3123C7.11082 28.4346 7.86589 29.3842 8.89279 29.6635Z" fill="currentColor"/>
</svg>

<svg xmlns="http://www.w3.org/2000/svg" fill="none" viewBox="0 0 40 40"><path fill="currentColor" d="M27.644 27.079a8.613 8.613 0 0 0 1.711-.58c3.156-1.441 5.17-4.62 5.145-8.114l-.025-3.84a2.43 2.43 0 0 0-2.432-2.422 2.416 2.416 0 0 0-2.194 1.452l-2.25-5.002a2.406 2.406 0 0 0-3.197-1.219c-.287.132-.534.31-.74.529a2.405 2.405 0 0 0-2.86-.666 2.437 2.437 0 0 0-1.389 2.605 2.488 2.488 0 0 0-.88.214 2.443 2.443 0 0 0-1.405 2.473l2.034.889-.363-.808a.819.819 0 0 1 .403-1.076.8.8 0 0 1 1.067.406l1.093 2.443.513.223.02.01c.644.29 1.248.64 1.807 1.041l-1.973-4.382-.665-1.483a.819.819 0 0 1 .403-1.077.8.8 0 0 1 1.067.406l.665 1.478 1.993 4.444c.181.406.66.589 1.067.406a.816.816 0 0 0 .403-1.077l-1.998-4.438a.819.819 0 0 1 .402-1.077.8.8 0 0 1 1.068.407l3.599 8.013c.156.35.533.538.906.457a.813.813 0 0 0 .634-.797l-.015-2.346a.812.812 0 0 1 .8-.818c.443-.005.81.36.81.808l.026 3.844c.02 2.849-1.626 5.449-4.203 6.622a6.223 6.223 0 0 1-.7.274c-.065.61-.181 1.209-.347 1.783v-.005ZM17.103 16.008l3.478 1.559a7.22 7.22 0 0 1 4.249 6.592c0 3.986-3.202 7.216-7.153 7.216h-6.54a.811.811 0 0 1-.805-.813c0-.447.358-.812.806-.812h3.222a.811.811 0 0 0 .805-.813.811.811 0 0 0-.805-.812H9.527a.811.811 0 0 1-.805-.813c0-.447.362-.812.805-.812h4.833a.811.811 0 0 0 .805-.813.811.811 0 0 0-.805-.812H7.916a.811.811 0 0 1-.805-.813c0-.447.362-.812.805-.812h6.444a.811.811 0 0 0 .805-.813.811.811 0 0 0-.805-.813H9.527a.811.811 0 0 1-.805-.812c0-.447.362-.813.805-.813h8.719a.81.81 0 0 0 .79-.644.803.803 0 0 0-.463-.91l-2.125-.954c-.407-.183-.588-.66-.407-1.072.181-.411.654-.594 1.062-.411Zm-8.21 13.655c-.111.28-.171.584-.171.9A2.428 2.428 0 0 0 11.138 33h6.539c4.842 0 8.764-3.956 8.764-8.841a8.847 8.847 0 0 0-5.205-8.08l-3.479-1.56a2.407 2.407 0 0 0-3.191 1.24 2.456 2.456 0 0 0 .408 2.615H9.527a2.428 2.428 0 0 0-2.416 2.438c0 .315.06.62.171.899A2.434 2.434 0 0 0 5.5 24.062c0 1.122.755 2.072 1.782 2.351-.11.28-.171.584-.171.9 0 1.122.755 2.071 1.782 2.35Z"/></svg>
